X:1
T: Loch Kinord
C:C Sherrit
R:Reel
Q: 232
K:D
M:4/4
L:1/8
A|:d2 fa fd df|gf ed ce A=c|B2 GB Ad fa|gf ed ce eA|
d2 fa fd df|gf ed ce A=c|B2 GB Ad fa|1gf ea fd dA:|2gf ea fd df|
|:e2 ce Ac eg|f2 df af df|gf ed ed cB|c2 A2 A2 fe|
d2 fa fd df|gf ed ce A=c|B2 GB Ad fa|1gf ea fd dA:|2gf ea fd d||
